X:63
T:Mazurka
R:Mazurka
O:France
M:3/4
C:Fr\'ed\'eric Paris
K:G
DG|B2ABcA|c2B2AG|1F2FGAc|B2G2:|2F2FGAF|G4::\
AB|c2cBAG|F2FEDE|1F2FGAc|B2G2AB:|2F2FGAF|G4:|
